X: 5
T: A Breeze from Alabama
C: Scott Joplin
%%abc-version 2.0
%%abcx-abcm2ps-target-version 5.9.1 (29 Sep 2008)
%%abc-creator hum2abc beta
%%abcx-conversion-date 2021/07/20 09:00:57
%%abc-copyright Copyright 2004 by Craig Stuart Sapp
%%abc-edited-by Craig Stuart Sapp
%%abc-edited-by Craig Stuart Sapp
%%abcx-initial-encoding-date 2004/06/09
%%humdrum-veritas 1786479401
%%humdrum-veritas-data 1003675443
%%removed 0's from note length
%%linebreak <none>
%%barnumbers 0
L: 1/8
M: 2/4
N: Derived from breeze.krn
Q: "Not fast." 1/4=88
%%staves {1 2}
V: 1 clef=treble
V: 2 clef=bass
K: C
[V:1] [GE] [I:setbarnb 1]| 
[V:2] C | 
[V:1] cA/^G/ A/B/c- & [c^D] z z E- | 
[V:2] CA,/^G,/ A,/B,/C- & [A,^F,C] z z =G,- | 
[V:1] [c/E/]G/E/^D/ E/F/G- | 
[V:2] [C/G,/]G,/E,/^D,/ E,/F,/G,- | 
[V:1] G/F/D/^C/ E/D/B,/A,/ | 
[V:2] G,/F,/D,/^C,/ E,/D,/B,,/A,,/ | 
[V:1] G, z !accent![gdBG]G ]|:  
[V:2] G,, z !accent![G,,G,,,] z ]|:  
[V:1] [e/G/][^d/^F/][e/G/][c/E/]- [c/E/]E/=F/^F/ | 
[V:2] C,[ECG,] G,,[ECG,] | 
[V:1] G/c/e/[g/e/G/]- [g/e/G/][^f/^d/^F/][geG] | 
[V:2] C,[ECG,] G,,[ECG,] | 
[V:1] [e/G/][^d/^F/][e/G/][c/E/]- [c/E/]E/=F/^F/ | 
[V:2] C,[ECG,] G,,[ECG,] | 
[V:1] G/c/e/[g/e/G/]- [g/e/G/][^f/^d/^F/][geG] | 
[V:2] C,[ECG,] G,,[ECG,] | 
[V:1] [g/G/][^g/f/^G/][a/f/A/][b/f/B/]- [b/f/B/][=g/f/=G/][a/f/A/][b/f/B/] | 
[V:2] D,[FB,G,] G,,[FB,G,] | 
[V:1] [c'/e/c/][b/e/B/][c'/e/c/][e'/g/e/]- [e'/g/e/][^d'/^d/][e'e] | 
[V:2] C,[ECG,] ^C,[G^A,] | 
[V:1] e'/d'/^c'/d'/- d'/[=c'/e/][b/d/][a/c/] | 
[V:2] D,[GDB,] D,[^FDC] | 
[V:1] !accent![g2B2]-[gB][=fdBG] | 
[V:2] !accent![G2D2]-[GD] z & G,=F,/D,/- D,/B,,/G,, | 
[V:1] [e/c/G/][^d/^F/][e/G/][c/E/]- [c/E/]E/=F/^F/ | 
[V:2] C,[ECG,] G,,[ECG,] | 
[V:1] G/c/e/[g/e/G/]- [g/e/G/][^f/^d/^F/][geG] | 
[V:2] C,[ECG,] G,,[ECG,] | 
[V:1] [e/G/][^d/^F/][e/G/]G/- G/_B/A/^G/ | 
[V:2] C,[ECG,] ^C,[EA,G,] | 
[V:1] A/d/f/[a/f/A/]- [a/f/A/]f/d/A/ |[1 
[V:2] D,[DA,F,] F,[DA,] | 
[V:1] cA/^G/ A/B/c- & [c^D] z z E- | 
[V:2] CA,/^G,/ A,/B,/C- & [A,^F,C] z z =G,- | 
[V:1] [c/E/]G/E/^D/ E/F/G- | 
[V:2] [C/G,/]G,/E,/^D,/ E,/F,/G,- | 
[V:1] G/F/D/^C/ E/D/B,/A,/ | 
[V:2] G,/F,/D,/^C,/ E,/D,/B,,/A,,/ | 
[V:1] G, z [gdBG]G :|][2 
[V:2] G,, z [G,,G,,,] z :|]  
[V:1] A/^G/A/B/ c/B/c/d/ | 
[V:2] [^DCA,^F,] z [DCA,F,] z | 
[V:1] e[f2^c2G2][ecG] | 
[V:2] [ECG,][A,A,,][A,,2A,,,2] | 
[V:1] [e=c^F][e2B2=F2][dBF] | 
[V:2] [D,D,,][G,G,,][G,,2G,,,2] | 
[V:1] [cE] z {/gab} !accent![c'e] z ]|: 
[V:2] [C,C,,] z [C,C,,] z ]|:  
[V:1] [afA][c'2a2c2][afA] | 
[V:2] F,,[FCA,] A,,[FCA,] | 
[V:1] [afA][g3e3G3] | 
[V:2] C,[ECG,] E,[ECG,] | 
[V:1] [f/d/][e/c/][d/B/][e/c/] [f/d/][af][a/f/] | 
[V:2] G,,[FB,G,] B,,[FB,G,] | 
[V:1] [g/e/][f/d/][e/c/][f/d/] [g/e/][c'e][c'/e/] | 
[V:2] C,[ECG,] C,[ECG,] | 
[V:1] [afA][c'2a2c2][afA] | 
[V:2] F,,[FCA,] A,,[FCA,] | 
[V:1] [afA][g3e3G3] | 
[V:2] C,[ECG,] E,[ECG,] | 
[V:1] [c'/e/c/][b/e/B/][a/e/A/][b/e/B/] [c'/a/c/][^c'/a/^c/][d'/b/a/d/][^d'/b/a/^d/] | 
[V:2] [A,A,,][ECA,] [F,F,,][F,F,,] | 
[V:1] [e'b^ge] z!accent![=g2e2_B2] | 
[V:2] [E,E,,] z!accent![C2C,2] | 
[V:1] [afA][c'2a2c2][afA] | 
[V:2] F,,[FCA,] A,,[FCA,] | 
[V:1] [afA][g3e3G3] | 
[V:2] C,[ECG,] E,[ECG,] | 
[V:1] [f/d/][e/c/][d/B/][e/c/] [f/d/][af][a/f/] | 
[V:2] G,,[FB,G,] B,,[FB,G,] | 
[V:1] [g/e/][f/d/][e/c/][f/d/] [g/e/][c'e][c'/e/] | 
[V:2] C,[ECG,] E,[ECG,] | 
[V:1] [d'd][d'd]- [d'/d/]c'/b/a/ | 
[V:2] F,[DCA,] ^F,[^DCA,] | 
[V:1] [ae][ge]- [g/e/]c/d/e/ | 
[V:2] G,[EC] E,[ECG,] | 
[V:1] [gB][f2B2][BGF] |[1 
[V:2] D,[DG,][G,2G,,2] | 
[V:1] [cGE][g/G/][g/G/] [gG][gG] :|][2 
[V:2] [C,C,,] zz2 :|]  
[V:1] [cGE] z {/gab} !accent![c'e] z ]|: 
[V:2] [C,C,,] z !accent![C,C,,] z ]|:  
[V:1]  [K:Ab] [c'ec][c'ec]- [c'/e/c/]e/a/b/ | 
[V:2]  [K:Ab] [A,A,,][CA,E,] [E,E,,][CA,E,] | 
[V:1] [c'/e/c/][c'ec][c'/e/c/]- [c'/e/c/][c'/c/][d'/d/][e'/e/] | 
[V:2] [A,A,,][CA,E,] [E,E,,][CA,E,] | 
[V:1] [f'af][f'af]- [f'/a/f/][f'/a/f/][e'/g/e/][d'/f/d/] | 
[V:2] [D,D,,][DA,F,] [D,D,,][DA,F,] | 
[V:1] [c'/e/c/][c'ec][c'/e/c/]- [c'/e/c/][c'/c/][b/B/][a/A/] | 
[V:2] [A,A,,][CA,E,] [E,E,,][CA,E,] | 
[V:1] [gdG][gdG]- [g/d/G/][e/E/][f/F/][g/G/] | 
[V:2] [B,B,,][DB,E,] [E,E,,][DB,E,] | 
[V:1] [a/c/A/][acA][a/c/A/]- [a/c/A/][c'/c/][b/B/][a/A/] | 
[V:2] [A,A,,][CA,E,] [E,E,,][CA,E,] | 
[V:1] [fBF][d'fd]- [d'/f/d/][d'/d/][c'/c/][b/B/] | 
[V:2] [D,D,,][B,,B,,,] [E,E,,][DG,E,] | 
[V:1] [aA][a/A/][a/A/] [aA][bB] | 
[V:2] [CA,] zz2 | 
[V:1] [=b=B][bB]- [b/B/][=e/=E/][^g/^G/][=b/=B/] | 
[V:2] =E,[=B,^G,] E,[B,G,] | 
[V:1] [^f/^d/=B/^F/][fdBF][f/d/B/F/]- [f/d/B/F/][f/F/][=b/=B/][^d'/^d/] | 
[V:2] ^D,[=B,^F,] =B,,[B,F,^D,] | 
[V:1] [^c'^c][c'c]- [c'/c/][^f/^F/][^g/^G/][^a/^A/] | 
[V:2] ^F,,[^A,^F,=E,] F,,[A,F,E,] | 
[V:1] [=b=B][b/B/][b/B/] [bB][bB] | 
[V:2] [=B,^F,^D,=B,,] zz2 | 
[V:1] [=b=B][bB]- [b/B/][=e/=E/][^g/^G/][=b/=B/] | 
[V:2] =E,[=B,^G,] =E,[B,G,] | 
[V:1] [c'/_e/c/][c'ec][c'/e/c/]- [c'/e/c/][c'/c/][_b/_B/][_a/_A/] | 
[V:2] E,[C_A,E,] E,[CA,] | 
[V:1] [g_dG][e'e]- [e'/e/][d'/d/][c'/c/][b/B/] |[1 
[V:2] [E,E,,][DG,E,] [E,E,,][DG,E,] | 
[V:1] [aA]e/e/ ee :|][2 
[V:2] [CA,] zz2 :|]  
[V:1] [aA][a/A/][a/A/] [aA][aA] | 
[V:2] [CA,] z[D2A,2F,2D,2] | 
[V:1] [=a=A][f'f]- [f'/f/][=e'/=e/][=d'/=d/][c'/c/] | 
[V:2] [C=A,F,C,][FF,]- [F/F,/][=E/=E,/][=D/=D,/][C/C,/] | 
[V:1] [g/G/][=a/=A/][_b_B]- [b/B/][b/=d/B/][=a/c/=A/][g/B/G/] | 
[V:2] [=E,/=E,,/][F,/F,,/][G,G,,]- [G,/G,,/][C,/C,,/][=D,/=D,,/][=E,/=E,,/] | 
[V:1] [f=AF][f2_d2_A2F2][fdAF] | 
[V:2] [F,F,,][_D,2_D,,2][D,D,,] | 
[V:1] [fc=AF] z [f'c'=af] z ]|:  
[V:2] [F,F,,] z [F,,F,,,] z ]|:  
[V:1]  [K:F] [BG]>c [B3/G3/]c/ | 
[V:2]  [K:F] E,[CB,G,] C,[CB,G,] | 
[V:1] z/ e/d/c/ B/A/B/G/ | 
[V:2] E,[CB,G,] C,[CB,G,] | 
[V:1] [AF]>c [A3/F3/]c/ | 
[V:2] F,[CA,] C,[CA,] | 
[V:1] z/ f/e/d/ c/=B/c/A/ | 
[V:2] F,[CA,] C,[CA,] | 
[V:1] [aB]>gB2- | 
[V:2] G,[ECB,] C,[ECB,] | 
[V:1] B/c/[e/B/]c/ d/e/d/c/ | 
[V:2] G,[ECB,] C,[ECB,] | 
[V:1] [gA]>fA2- | 
[V:2] F,[FA,] C,[FCA,] | 
[V:1] A/A/d/A/ c/d/c/A/ | 
[V:2] F,[FCA,] C,[FCA,] | 
[V:1] [BG]>c [B3/G3/]c/ | 
[V:2] E,[CB,G,] C,[CB,G,] | 
[V:1] z/ e/d/c/ B/A/B/G/ | 
[V:2] E,[CB,G,] C,[CB,G,] | 
[V:1] [AF]>c [A3/F3/]c/ | 
[V:2] F,[CA,] C,A, | 
[V:1] z/ f/e/d/ c/=B/c/A/ | 
[V:2] F,[CA,] C,[CA,] | 
[V:1] [fF]>[gG][_a2_A2] | 
[V:2] _D,[=B,_A,F,] D,[B,A,F,] | 
[V:1] z/ f/[=a/c/]f/ g/a/g/f/ | 
[V:2] C,[C=A,F,] C,[FCA,] | 
[V:1] {/c'} b/a/g- g/b/a/g/ |[1 
[V:2] G,[ECB,] C,[ECB,] | 
[V:1] fc/c/ cc :|][2 
[V:2] [FCA,F,] zz2 :|]  
[V:1] f z F,^F, || 
[V:2] [FCA,F,] z F,,^F,, ||  
[V:1] G,A,- A,/G,/^F,/G,/ | 
[V:2] G,,A,,- A,,/G,,/^F,,/G,,/ | 
[V:1] CD- D/C/=B,/C/ | 
[V:2] C,D,- D,/C,/=B,,/C,/ | 
[V:1] {/=B} A/G/^F/G/ ^G/A/^A/B/ | 
[V:2] [=F2=B,2G,2][F2B,2G,2] | 
[V:1] c z {/ga=b} !accent![c'e] z ]|:  
[V:2] [EC] z !accent![C,C,,] z ]|:  
[V:1]  [K:C] [afA][c'2a2c2][afA] | 
[V:2]  [K:C] F,,[FCA,] A,,[FCA,] | 
[V:1] [afA][g3e3G3] | 
[V:2] C,[ECG,] E,[ECG,] | 
[V:1] [f/d/][e/c/][d/B/][e/c/] [f/d/][af][a/f/] | 
[V:2] G,,[FB,G,] B,,[FB,G,] | 
[V:1] [g/e/][f/d/][e/c/][f/d/] [g/e/][c'e][c'/e/] | 
[V:2] C,[ECG,] C,[FCA,] | 
[V:1] [afA][c'2a2c2][afA] | 
[V:2] F,,[FCA,] A,,[FCA,] | 
[V:1] [afA][g3e3G3] | 
[V:2] C,[ECG,] E,[ECA,] | 
[V:1] [c'/e/c/][b/e/B/][a/e/A/][b/e/B/] [c'/a/c/][^c'/a/^c/][d'/b/a/d/][^d'/b/a/^d/] | 
[V:2] [A,A,,][ECA,] [F,F,,][F,F,,] | 
[V:1] [e'b^ge] z!accent![=g2e2_B2] | 
[V:2] [E,E,,] z!accent![C2C,2] | 
[V:1] [afA][c'2a2c2][afA] | 
[V:2] F,,[FCA,] A,,[FCA,] | 
[V:1] [afA][g3e3G3] | 
[V:2] C,[ECG,] E,[ECG,] | 
[V:1] [f/d/][e/c/][d/B/][e/c/] [f/d/][af][a/f/] | 
[V:2] G,,[FB,G,] B,,[FB,G,] | 
[V:1] [g/e/][f/d/][e/c/][f/d/] [g/e/][c'e][c'/e/] | 
[V:2] C,[ECG,] E,[ECG,] | 
[V:1] [d'd][d'd]- [d'/d/]c'/b/a/ | 
[V:2] F,[DCA,] ^F,[^DCA,] | 
[V:1] [ae][ge]- [g/e/]c/d/e/ | 
[V:2] G,[EC] E,[ECG,] | 
[V:1] [gB][f2B2][BGF] |[1 
[V:2] D,[DG,][G,2G,,2] | 
[V:1] [cGE][g/G/][g/G/] [gG][gG] :|][2 
[V:2] [C,C,,] zz2 :|]  
[V:1] [cGE] z {/gab} !accent![c'e] |]  
[V:2] [C,C,,] z [C,C,,] |]  


